svg/kubescape.svg

<?xml version="1.0" encoding="UTF-8"?>
<svg xmlns="http://www.w3.org/2000/svg" xmlns:xlink="http://www.w3.org/1999/xlink" width="32.241001" height="32" viewBox="0 0 32.241001 32">
<defs>
<filter id="filter-remove-color" x="0%" y="0%" width="100%" height="100%">
<feColorMatrix color-interpolation-filters="sRGB" values="0 0 0 0 1 0 0 0 0 1 0 0 0 0 1 0 0 0 1 0" />
</filter>
<linearGradient id="linear-pattern-0" gradientUnits="userSpaceOnUse" x1="97.410004" y1="116.839996" x2="171.779999" y2="116.839996" gradientTransform="matrix(0.16035, 0, 0, 0.16035, 0, 0)">
<stop offset="0" stop-color="rgb(100%, 47.058824%, 47.450981%)" stop-opacity="1"/>
<stop offset="0.21" stop-color="rgb(98.431373%, 46.27451%, 47.843137%)" stop-opacity="1"/>
<stop offset="0.36" stop-color="rgb(94.901961%, 44.705883%, 50.196081%)" stop-opacity="1"/>
<stop offset="0.5" stop-color="rgb(88.627452%, 41.568628%, 54.11765%)" stop-opacity="1"/>
<stop offset="0.63" stop-color="rgb(79.607844%, 37.64706%, 59.607846%)" stop-opacity="1"/>
<stop offset="0.75" stop-color="rgb(67.843139%, 32.156864%, 66.666669%)" stop-opacity="1"/>
<stop offset="0.86" stop-color="rgb(53.725493%, 25.490198%, 75.294119%)" stop-opacity="1"/>
<stop offset="0.98" stop-color="rgb(37.254903%, 17.647059%, 85.09804%)" stop-opacity="1"/>
<stop offset="1" stop-color="rgb(33.333334%, 16.078432%, 87.843138%)" stop-opacity="1"/>
</linearGradient>
<clipPath id="clip-0">
<path clip-rule="nonzero" d="M 0 0 L 32.25 0 L 32.25 32 L 0 32 Z M 0 0 "/>
</clipPath>
<image id="source-13" x="0" y="0" width="33" height="32" xlink:href="data:image/png;base64,iVBORw0KGgoAAAANSUhEUgAAACEAAAAgCAYAAACcuBHKAAAABmJLR0QA/wD/AP+gvaeTAAAAfElEQVRYhe3SMQoCMRQE0BfdRqws7O28lmfxmLaiBxAFC3UtNoWlu4Gt5kEIv8hnGEJERERMUxrfL7DHqs5PnPAas6RrDNHhgF2dzzjiNmeIgg22dX4Y2hmlNQT09fi5Zw3R44qloZUL3mOXtH7MgnUNAR/cTWwkIiLiX18z0hDU3Y6W7gAAAABJRU5ErkJggg=="/>
<mask id="mask-0">
<g filter="url(#filter-remove-color)">
<use xlink:href="#source-13"/>
</g>
</mask>
<clipPath id="clip-1">
<rect x="0" y="0" width="33" height="32"/>
</clipPath>
<g id="source-12" clip-path="url(#clip-1)">
<path fill-rule="nonzero" fill="rgb(100%, 100%, 100%)" fill-opacity="1" d="M 19.523438 19.074219 L 17.015625 19.074219 C 16.800781 19.074219 16.601562 18.957031 16.496094 18.769531 L 16.058594 17.976562 L 16.984375 16.375 L 17.964844 14.671875 L 20.035156 18.183594 C 20.144531 18.367188 20.144531 18.59375 20.039062 18.777344 C 19.933594 18.960938 19.734375 19.074219 19.523438 19.074219 M 19.523438 19.074219 "/>
</g>
<clipPath id="clip-2">
<rect x="0" y="0" width="33" height="32"/>
</clipPath>
<g id="source-15" clip-path="url(#clip-2)">
<g clip-path="url(#clip-0)">
<g mask="url(#mask-0)">
<use xlink:href="#source-12"/>
</g>
</g>
</g>
<linearGradient id="linear-pattern-1" gradientUnits="userSpaceOnUse" x1="137.100006" y1="124.769997" x2="171.789993" y2="124.769997" gradientTransform="matrix(0.16035, 0, 0, 0.16035, 0, 0)">
<stop offset="0" stop-color="rgb(100%, 47.058824%, 47.450981%)" stop-opacity="1"/>
<stop offset="0.21" stop-color="rgb(98.431373%, 46.27451%, 47.843137%)" stop-opacity="1"/>
<stop offset="0.36" stop-color="rgb(94.901961%, 44.705883%, 50.196081%)" stop-opacity="1"/>
<stop offset="0.5" stop-color="rgb(88.627452%, 41.568628%, 54.11765%)" stop-opacity="1"/>
<stop offset="0.63" stop-color="rgb(79.607844%, 37.64706%, 59.607846%)" stop-opacity="1"/>
<stop offset="0.75" stop-color="rgb(67.843139%, 32.156864%, 66.666669%)" stop-opacity="1"/>
<stop offset="0.86" stop-color="rgb(53.725493%, 25.490198%, 75.294119%)" stop-opacity="1"/>
<stop offset="0.98" stop-color="rgb(37.254903%, 17.647059%, 85.09804%)" stop-opacity="1"/>
<stop offset="1" stop-color="rgb(33.333334%, 16.078432%, 87.843138%)" stop-opacity="1"/>
</linearGradient>
</defs>
<path fill-rule="nonzero" fill="url(#linear-pattern-0)" d="M 27.546875 15.242188 L 22.234375 24.4375 C 22.164062 24.558594 22.082031 24.671875 21.984375 24.773438 L 19.105469 24.773438 L 16.414062 20.113281 L 15.621094 18.734375 L 16.984375 16.375 L 18.097656 14.4375 L 19.105469 12.699219 L 26.078125 12.699219 Z M 27.546875 15.242188 "/>
<path fill-rule="nonzero" fill="rgb(16.078432%, 8.627451%, 98.823529%)" fill-opacity="1" d="M 28.472656 13.636719 L 27.546875 15.242188 L 26.078125 12.699219 L 19.105469 12.699219 L 18.097656 14.4375 L 16.984375 16.375 L 15.621094 18.734375 L 16.414062 20.113281 L 19.105469 24.773438 L 21.984375 24.773438 C 21.636719 25.15625 21.132812 25.382812 20.601562 25.382812 L 8.125 25.382812 C 7.449219 25.382812 6.828125 25.023438 6.492188 24.4375 L 0.253906 13.636719 C -0.0820312 13.050781 -0.0820312 12.332031 0.253906 11.746094 L 6.488281 0.941406 C 6.828125 0.359375 7.449219 0 8.121094 0 L 20.597656 0 C 21.269531 0 21.894531 0.359375 22.230469 0.941406 L 28.46875 11.746094 C 28.808594 12.332031 28.808594 13.050781 28.46875 13.636719 Z M 28.472656 13.636719 "/>
<path fill-rule="nonzero" fill="rgb(100%, 100%, 100%)" fill-opacity="1" d="M 12.863281 6.308594 L 10.652344 6.308594 C 10.496094 6.308594 10.34375 6.367188 10.234375 6.480469 C 10.121094 6.589844 10.058594 6.742188 10.058594 6.898438 L 10.058594 18.484375 C 10.058594 18.8125 10.320312 19.074219 10.652344 19.074219 L 12.863281 19.074219 C 12.898438 19.074219 12.929688 19.074219 12.964844 19.066406 C 13.25 19.019531 13.457031 18.773438 13.457031 18.484375 L 13.457031 6.898438 C 13.457031 6.742188 13.394531 6.589844 13.28125 6.480469 C 13.171875 6.367188 13.019531 6.308594 12.863281 6.308594 M 16.601562 11.691406 L 16.800781 11.398438 L 17.136719 10.898438 L 19.609375 7.230469 C 19.730469 7.046875 19.742188 6.8125 19.640625 6.621094 C 19.539062 6.429688 19.335938 6.308594 19.117188 6.308594 L 17.011719 6.308594 C 16.808594 6.304688 16.621094 6.410156 16.511719 6.582031 L 13.457031 11.398438 L 13.089844 11.980469 C 12.972656 12.164062 12.964844 12.394531 13.070312 12.585938 L 13.457031 13.285156 L 14.558594 15.273438 L 16.058594 17.976562 L 16.984375 16.375 L 17.964844 14.671875 L 16.582031 12.324219 C 16.503906 12.195312 16.480469 12.042969 16.511719 11.894531 C 16.527344 11.820312 16.558594 11.75 16.601562 11.691406 M 16.601562 11.691406 "/>
<path fill-rule="nonzero" fill="rgb(0%, 5.098039%, 20%)" fill-opacity="1" d="M 32.125 18 C 32.074219 17.835938 32.003906 17.675781 31.917969 17.527344 L 28.300781 11.261719 C 27.867188 10.515625 27.070312 10.054688 26.207031 10.050781 L 18.96875 10.050781 C 18.105469 10.054688 17.3125 10.515625 16.878906 11.261719 L 16.796875 11.398438 L 16.511719 11.894531 L 15.4375 13.753906 L 14.558594 15.273438 L 13.457031 17.1875 L 13.257812 17.527344 C 13.253906 17.539062 13.246094 17.550781 13.242188 17.5625 C 12.980469 18.023438 12.890625 18.554688 12.960938 19.066406 C 13 19.375 13.101562 19.675781 13.257812 19.945312 L 16.878906 26.210938 C 17.308594 26.957031 18.105469 27.417969 18.96875 27.417969 L 26.207031 27.417969 C 26.285156 27.417969 26.363281 27.414062 26.441406 27.40625 L 29.011719 31.515625 C 29.316406 32 29.960938 32.144531 30.445312 31.84375 L 30.601562 31.746094 C 31.085938 31.441406 31.234375 30.796875 30.933594 30.316406 L 28.328125 26.160156 L 31.917969 19.945312 C 32.257812 19.355469 32.332031 18.648438 32.125 18 M 28.773438 20.101562 L 26.074219 24.773438 L 19.101562 24.773438 L 16.414062 20.113281 L 15.617188 18.734375 L 16.054688 17.976562 L 16.980469 16.375 L 17.964844 14.671875 L 18.097656 14.4375 L 19.101562 12.699219 L 26.074219 12.699219 L 27.546875 15.246094 L 29.558594 18.734375 Z M 28.773438 20.101562 "/>
<use xlink:href="#source-15"/>
<path fill-rule="nonzero" fill="url(#linear-pattern-1)" d="M 27.546875 15.246094 L 22.046875 24.773438 L 21.984375 24.773438 C 22.078125 24.671875 22.160156 24.558594 22.230469 24.4375 L 27.542969 15.242188 Z M 27.546875 15.246094 "/>
</svg>

<svg role="img" viewBox="0 0 32.241 32" xmlns="http://www.w3.org/2000/svg"><defs><linearGradient gradientTransform="scale(.16035)" gradientUnits="userSpaceOnUse" id="kubescape_svg__g" x1="97.41" x2="171.78" y1="116.84" y2="116.84"><stop offset="0" stop-color="rgb(100%, 47.058824%, 47.450981%)"/><stop offset=".21" stop-color="rgb(98.431373%, 46.27451%, 47.843137%)"/><stop offset=".36" stop-color="rgb(94.901961%, 44.705883%, 50.196081%)"/><stop offset=".5" stop-color="rgb(88.627452%, 41.568628%, 54.11765%)"/><stop offset=".63" stop-color="rgb(79.607844%, 37.64706%, 59.607846%)"/><stop offset=".75" stop-color="rgb(67.843139%, 32.156864%, 66.666669%)"/><stop offset=".86" stop-color="rgb(53.725493%, 25.490198%, 75.294119%)"/><stop offset=".98" stop-color="rgb(37.254903%, 17.647059%, 85.09804%)"/><stop offset="1" stop-color="rgb(33.333334%, 16.078432%, 87.843138%)"/></linearGradient><linearGradient gradientTransform="scale(.16035)" gradientUnits="userSpaceOnUse" id="kubescape_svg__i" x1="137.1" x2="171.79" y1="124.77" y2="124.77"><stop offset="0" stop-color="rgb(100%, 47.058824%, 47.450981%)"/><stop offset=".21" stop-color="rgb(98.431373%, 46.27451%, 47.843137%)"/><stop offset=".36" stop-color="rgb(94.901961%, 44.705883%, 50.196081%)"/><stop offset=".5" stop-color="rgb(88.627452%, 41.568628%, 54.11765%)"/><stop offset=".63" stop-color="rgb(79.607844%, 37.64706%, 59.607846%)"/><stop offset=".75" stop-color="rgb(67.843139%, 32.156864%, 66.666669%)"/><stop offset=".86" stop-color="rgb(53.725493%, 25.490198%, 75.294119%)"/><stop offset=".98" stop-color="rgb(37.254903%, 17.647059%, 85.09804%)"/><stop offset="1" stop-color="rgb(33.333334%, 16.078432%, 87.843138%)"/></linearGradient><clipPath id="kubescape_svg__b"><path d="M0 0h32.25v32H0Zm0 0"/></clipPath><clipPath id="kubescape_svg__a"><path d="M0 0h33v32H0z"/></clipPath><g clip-path="url(#kubescape_svg__a)" id="kubescape_svg__d"><path d="M19.523 19.074h-2.507a.6.6 0 0 1-.52-.304l-.437-.793.925-1.602.98-1.703 2.071 3.512c.11.183.11.41.004.593a.6.6 0 0 1-.516.297m0 0" fill="rgb(100%, 100%, 100%)"/></g><g clip-path="url(#kubescape_svg__b)" id="kubescape_svg__h" mask="url(#kubescape_svg__c)"><use href="#kubescape_svg__d"/></g><filter height="100%" id="kubescape_svg__e" width="100%" x="0%" y="0%"><feColorMatrix color-interpolation-filters="sRGB" values="0 0 0 0 1 0 0 0 0 1 0 0 0 0 1 0 0 0 1 0"/></filter><image height="32" href="data:image/png;base64,iVBORw0KGgoAAAANSUhEUgAAACEAAAAgCAYAAACcuBHKAAAABmJLR0QA/wD/AP+gvaeTAAAAfElEQVRYhe3SMQoCMRQE0BfdRqws7O28lmfxmLaiBxAFC3UtNoWlu4Gt5kEIv8hnGEJERERMUxrfL7DHqs5PnPAas6RrDNHhgF2dzzjiNmeIgg22dX4Y2hmlNQT09fi5Zw3R44qloZUL3mOXtH7MgnUNAR/cTWwkIiLiX18z0hDU3Y6W7gAAAABJRU5ErkJggg==" id="kubescape_svg__f" width="33" x="0" y="0"/><mask id="kubescape_svg__c"><g filter="url(#kubescape_svg__e)"><use href="#kubescape_svg__f"/></g></mask></defs><path d="m27.547 15.242-5.313 9.196q-.104.182-.25.335h-2.879l-2.69-4.66-.794-1.379 1.363-2.359 1.114-1.937 1.007-1.739h6.973Zm0 0" fill="url(#kubescape_svg__g)"/><path d="m28.473 13.637-.926 1.605-1.469-2.543h-6.973l-1.007 1.739-1.114 1.937-1.363 2.36.793 1.378 2.691 4.66h2.88c-.348.383-.852.61-1.383.61H8.125a1.88 1.88 0 0 1-1.633-.945L.254 13.637a1.9 1.9 0 0 1 0-1.89L6.488.94C6.828.36 7.45 0 8.121 0h12.477c.672 0 1.297.36 1.632.941l6.239 10.805a1.88 1.88 0 0 1 0 1.89Zm0 0" fill="rgb(16.078432%, 8.627451%, 98.823529%)"/><path d="M12.863 6.309h-2.21a.58.58 0 0 0-.419.171.58.58 0 0 0-.175.418v11.586c0 .328.261.59.593.59h2.211q.051.002.102-.008a.59.59 0 0 0 .492-.582V6.898a.58.58 0 0 0-.176-.418.58.58 0 0 0-.418-.171m3.739 5.382.199-.293.336-.5 2.472-3.668a.6.6 0 0 0 .032-.609.6.6 0 0 0-.524-.312h-2.105a.58.58 0 0 0-.5.273l-3.055 4.816-.367.582a.59.59 0 0 0-.02.606l.387.7 1.102 1.987 1.5 2.704.925-1.602.98-1.703-1.382-2.348a.59.59 0 0 1 .02-.633m0 0" fill="rgb(100%, 100%, 100%)"/><path d="M32.125 18a2.3 2.3 0 0 0-.207-.473l-3.617-6.265a2.44 2.44 0 0 0-2.094-1.211h-7.238a2.43 2.43 0 0 0-2.09 1.21l-.082.137-.285.497-1.075 1.859-.878 1.52-1.102 1.914-.2.34q-.006.017-.015.035c-.262.46-.351.992-.281 1.503.039.309.14.61.297.88l3.62 6.265a2.41 2.41 0 0 0 2.09 1.207h7.239q.117 0 .234-.012l2.57 4.11c.305.484.95.629 1.434.328l.157-.098c.484-.305.632-.95.332-1.43l-2.606-4.156 3.59-6.215c.34-.59.414-1.297.207-1.945m-3.352 2.102-2.699 4.671h-6.972l-2.688-4.66-.797-1.379.438-.757.925-1.602.985-1.703.133-.235 1.004-1.738h6.972l1.473 2.547 2.012 3.488Zm0 0" fill="rgb(0%, 5.098039%, 20%)"/><use href="#kubescape_svg__h"/><path d="m27.547 15.246-5.5 9.527h-.063q.141-.152.246-.335l5.313-9.196Zm0 0" fill="url(#kubescape_svg__i)"/></svg>
